assets/features/channel/europe-and-america/visa.svg

<svg width="80" height="80" viewBox="0 0 80 80" fill="none" xmlns="http://www.w3.org/2000/svg">
<rect width="80" height="80" rx="8" fill="#1434CB"/>
<path d="M49.6855 29.6646C45.1413 29.6646 41.0803 32.0125 41.0803 36.3504C41.0803 41.3252 48.2826 41.6688 48.2826 44.168C48.2826 45.2203 47.0728 46.1623 45.0065 46.1623C42.0741 46.1623 39.8824 44.8461 39.8824 44.8461L38.9447 49.2235C38.9447 49.2235 41.4694 50.3354 44.8215 50.3354C49.7898 50.3354 53.6993 47.8721 53.6993 43.4601C53.6993 38.2033 46.4671 37.8699 46.4671 35.5502C46.4671 34.7258 47.4601 33.8226 49.5205 33.8226C51.8451 33.8226 53.7418 34.7799 53.7418 34.7799L54.6596 30.552C54.6596 30.552 52.5959 29.6646 49.6855 29.6646ZM8.11006 29.9837L8 30.6218C8 30.6218 9.9118 30.9706 11.6336 31.6663C13.8507 32.4641 14.0086 32.9286 14.382 34.371L18.4507 50.0063H23.905L32.3076 29.9837H26.8659L21.4667 43.5971L19.2636 32.0577C19.0615 30.737 18.038 29.9837 16.7852 29.9837H8.11006ZM34.4958 29.9837L30.227 50.0062H35.4161L39.6699 29.9836H34.4958V29.9837ZM63.4373 29.9837C62.186 29.9837 61.5231 30.6515 61.0366 31.8184L53.4342 50.0062H58.8759L59.9287 46.9749H66.5583L67.1985 50.0062H72L67.8112 29.9837H63.4373ZM64.145 35.3931L65.758 42.9066H61.4367L64.145 35.3931Z" fill="white"/>
</svg>

<svg xmlns="http://www.w3.org/2000/svg" width="80" height="80" fill="none" viewBox="0 0 80 80"><rect width="80" height="80" fill="#1434cb" rx="8"/><path fill="#fff" d="M49.686 29.665c-4.545 0-8.606 2.348-8.606 6.685 0 4.975 7.203 5.319 7.203 7.818 0 1.052-1.21 1.994-3.276 1.994-2.933 0-5.125-1.316-5.125-1.316l-.937 4.378s2.524 1.111 5.877 1.111c4.968 0 8.877-2.463 8.877-6.875 0-5.257-7.232-5.59-7.232-7.91 0-.824.993-1.727 3.053-1.727 2.325 0 4.222.957 4.222.957l.918-4.228s-2.064-.887-4.974-.887m-41.576.319-.11.638s1.912.349 3.634 1.044c2.217.798 2.375 1.263 2.748 2.705l4.069 15.635h5.454l8.403-20.022h-5.442l-5.4 13.613-2.202-11.54c-.203-1.32-1.226-2.073-2.479-2.073zm26.386 0-4.269 20.022h5.19l4.253-20.022zm28.941 0c-1.251 0-1.914.667-2.4 1.834l-7.603 18.188h5.442l1.053-3.031h6.63l.64 3.031H72l-4.189-20.022zm.708 5.41 1.613 7.513h-4.321z"/></svg>
